X:1
T:Title
%%score { ( 1 5 ) | ( 2 3 4 ) }
L:1/8
M:6/8
K:E
V:1 treble nm="Grand Piano"
V:5 treble 
V:2 bass 
V:3 bass 
V:4 bass 
V:1
 z3 z2[Q:1/4=87] E/F/ | [B,EG]2 G A2 E | [B,EG] E2- E2 E/E/ | F2 F FEF |[M:5/8] [B,EG]2 G G2 | %5
[M:1/8] E/F/ |[M:3/4] [B,EG]2 G A2 E | [B,EG]E- E3 E/F/ | [EG]E- E/-(3:2:2E/G/4 F2 E | %9
[M:5/8] E-E- E3 |[M:1/8] B/B/ |[M:3/4] e2 e e2 c | BB- B3 G/B/ | e2 df ec |[M:5/8] B-B- B3 | %15
[M:1/8] G/A/ |[M:3/4] B2 GG AB | [EAd]c- c3 E/[CEF]/ | [B,EG][B,E]- [B,E]/-(3:2:2[B,E]/G/4 F2 E | %19
[M:5/8] [G,B,E]-[G,B,E]- [G,B,E]3 |[M:1/8] B/B/ |[M:3/4] e2 z2 z2 | [GB][EG] [Ac] [GB]2 [EG] | %23
 [GB]2 [FA]/[FA]/ [Fd]2 .[CAc] |[M:5/8] [Ac][GB]- [GB]3 |[M:1/8] E/F/ |[M:3/4] G2 G A2 F | %27
 GE- E3 E/F/ | [EG]2 E/-(3:2:2E/G/4 [DF]2 E |[M:5/8] E-E- E3 |] %30
V:2
 z3 z2 G,/A,/ | z2 [B,E] [CE]2 ^B, | z [G,B,]2- [G,B,]2 G,/G,/ | %3
 [A,B,]2 [A,B,] [A,B,][G,B,][A,B,D] |[M:5/8] z2 [B,E] [B,E]2 |[M:1/8] G,/A,/ | %6
[M:3/4] z2 [B,E] [CE]2 ^B, | z [G,B,]- [G,B,]3 [G,B,]/[A,B,]/ | B, [G,B,]2 [A,B,]2 [G,B,] | %9
[M:5/8] [E,G,B,]-[E,G,B,]- [E,G,B,]3 |[M:1/8][K:treble] [G,G]/[G,G]/ | %11
[M:3/4] [E,,E,G,GB]2 [G,,G,B,EB=d] [A,CFc]2 [A,EA] | [G,E][K:treble][G,EG]- [G,EG]3 [B,E]/[G,G]/ | %13
 [G,EG]2 [B,FG][DAd] [CAc][A,EA] |[M:5/8][K:bass] [E,,E,G,EG]-[E,,E,G,EG]- [E,,E,G,EG]3 | %15
[M:1/8] [E,E]/[F,F]/ |[M:3/4] [E,G,EG]2 [E,E]E[K:treble] [F,F][G,G] | %17
 B,[K:treble][A,EA]- [A,EA]3 C/^B,/ | z G,2 [A,B,]2 [G,B,] |[M:5/8] [E,,E,]-[E,,E,]- [E,,E,]3 | %20
[M:1/8] [E,G,E]/[E,G,E]/ |[M:3/4] [E,G,E][E,A,] [E,C] [E,B,]2 [E,C]/[E,D]/ | %22
 [E,E][E,B,] [E,E] [E,E]2 [E,B,] | [B,,B,]2 [B,,B,]/[B,,B,]/ [B,,B,]2 z/ D/ | %24
[M:5/8] [E,E][E,E]- [E,E]3 |[M:1/8] [E,G,]/[E,A,E]/ |[M:3/4] [E,B,E]2 [E,B,E] [E,CE]2 [E,A,E] | %27
 [E,B,E][E,G,B,]- [E,G,B,]3 [E,G,B,]/[E,A,B,]/ | .[B,,B,]2 B, [B,,A,]2 [E,G,B,] | %29
[M:5/8] [E,G,B,]-[E,G,B,]- [E,G,B,]3 |] %30
V:3
 x6 | [E,,E,]6 | [E,,E,]6 | B,,6 |[M:5/8] [E,,E,]-[E,,E,]- [E,,E,]3 |[M:1/8] x |[M:3/4] [E,,E,]6 | %7
 [E,,E,]6 | B,,6 |[M:5/8] x5 |[M:1/8][K:treble] x |[M:3/4] z2 z A,,3 | [E,,E,]4[K:treble] z2 | %13
 [E,,E,]3 A,,3 |[M:5/8][K:bass] x5 |[M:1/8] x |[M:3/4] z2 z E,3[K:treble] | A,,6[K:treble] | B,,6 | %19
[M:5/8] x5 |[M:1/8] x |[M:3/4] x6 | x6 | z2 z2 z B,, |[M:5/8] x5 |[M:1/8] x |[M:3/4] x6 | x6 | %28
 z .B,,3 z2 |[M:5/8] x5 |] %30
V:4
 x6 | x6 | x6 | x6 |[M:5/8] x5 |[M:1/8] x |[M:3/4] x6 | x6 | x6 |[M:5/8] x5 |[M:1/8][K:treble] x | %11
[M:3/4] x6 | x[K:treble] x5 | x6 |[M:5/8][K:bass] x5 |[M:1/8] x |[M:3/4] E,,6[K:treble] | %17
 x[K:treble] x5 | x6 |[M:5/8] x5 |[M:1/8] x |[M:3/4] x6 | x6 | x6 |[M:5/8] x5 |[M:1/8] x | %26
[M:3/4] x6 | x6 | x6 |[M:5/8] x5 |] %30
V:5
 x6 | x6 | x6 | x6 |[M:5/8] x5 |[M:1/8] x |[M:3/4] x6 | x6 | x6 |[M:5/8] x5 |[M:1/8] x | %11
[M:3/4] x6 | x6 | x6 |[M:5/8] x5 |[M:1/8] x |[M:3/4] x6 | x6 | x6 |[M:5/8] x5 |[M:1/8] x | %21
[M:3/4] z F [Ae] [Ge]2 [Ad]/[Ac]/ | x6 | x6 |[M:5/8] x5 |[M:1/8] x |[M:3/4] x6 | x6 | z .G,3 z2 | %29
[M:5/8] x5 |] %30

